;Generated with Cura_SteamEngine 15.01
; Default start code
G28 ; Home extruder
G1 Z15 F100
M107 ; Turn off fan
G90 ; Absolute positioning
M82 ; Extruder in absolute mode
M190 S50
; Activate all used extruder
M104 T0 S210
G92 E0 ; Reset extruder position
; Wait for all used extruders to reach temperature
M109 T0 S210
;Layer count: 17
;LAYER:0
M107
G0 F9000 X94.827 Y112.880 Z0.300
;TYPE:SKIRT
G1 F1800 X97.280 Y111.629 E0.13738
G1 X100.000 Y111.201 E0.27475
G1 X102.717 Y111.628 E0.41196
G1 X103.875 Y112.218 E0.47680
G1 X105.173 Y112.881 E0.54952
G1 X107.120 Y114.828 E0.68689
G1 X108.369 Y117.280 E0.82418
G1 X108.597 Y118.718 E0.89682
G1 X108.800 Y119.998 E0.96147
G1 X108.598 Y121.280 E1.02622
G1 X108.368 Y122.721 E1.09902
G1 X107.120 Y125.171 E1.23620
G1 X105.171 Y127.120 E1.37371
G1 X104.022 Y127.705 E1.43804
G1 X102.721 Y128.370 E1.51093
G1 X101.440 Y128.572 E1.57563
G1 X100.002 Y128.800 E1.64827
G1 X98.722 Y128.598 E1.71292
G1 X97.280 Y128.370 E1.78575
G1 X96.124 Y127.781 E1.85048
G1 X94.826 Y127.118 E1.92320
G1 X92.879 Y125.171 E2.06057
G1 X91.630 Y122.718 E2.19790
G1 X91.428 Y121.438 E2.26255
G1 X91.200 Y120.002 E2.33509
G1 X91.402 Y118.722 E2.39974
G1 X91.630 Y117.280 E2.47258
G1 X92.879 Y114.828 E2.60986
G1 X94.827 Y112.880 E2.74730
G0 F9000 X95.065 Y113.208
G1 F1800 X97.405 Y112.014 E2.87837
G1 X100.000 Y111.606 E3.00942
G1 X102.592 Y112.014 E3.14033
G1 X103.693 Y112.574 E3.20196
G1 X104.935 Y113.209 E3.27155
G1 X106.792 Y115.066 E3.40257
G1 X107.983 Y117.405 E3.53352
G1 X108.202 Y118.782 E3.60308
G1 X108.201 Y118.782 E3.60313
G1 X108.395 Y119.998 E3.66457
G1 X108.203 Y121.217 E3.72613
G1 X107.983 Y122.596 E3.79580
G1 X106.792 Y124.933 E3.92666
G1 X104.933 Y126.792 E4.05782
G1 X103.836 Y127.351 E4.11925
G1 X102.595 Y127.985 E4.18878
G1 X101.378 Y128.177 E4.25024
G1 X100.001 Y128.395 E4.31980
G1 X98.785 Y128.203 E4.38122
G1 X97.405 Y127.985 E4.45092
G1 X96.306 Y127.425 E4.51245
G1 X95.064 Y126.790 E4.58205
G1 X93.207 Y124.933 E4.71307
G1 X92.015 Y122.593 E4.84409
G1 X91.823 Y121.376 E4.90555
G1 X91.605 Y120.001 E4.97501
G1 X91.797 Y118.785 E5.03643
G1 X92.015 Y117.405 E5.10613
G1 X93.207 Y115.066 E5.23710
G1 X95.065 Y113.208 E5.36819
G0 F9000 X95.303 Y113.536
G1 F1800 X97.531 Y112.399 E5.49299
G1 X100.000 Y112.011 E5.61768
G1 X102.467 Y112.399 E5.74227
G1 X103.511 Y112.930 E5.80070
G1 X104.697 Y113.536 E5.86715
G1 X106.464 Y115.304 E5.99186
G1 X107.598 Y117.530 E6.11649
G1 X107.990 Y119.999 E6.24122
G1 X107.807 Y121.154 E6.29956
G1 X107.598 Y122.471 E6.36609
G1 X106.464 Y124.695 E6.49063
G1 X104.695 Y126.464 E6.61544
G1 X103.658 Y126.992 E6.67350
G1 X103.658 Y126.993 E6.67355
G1 X102.470 Y127.600 E6.74011
G1 X101.315 Y127.782 E6.79844
G1 X100.001 Y127.990 E6.86482
G1 X98.847 Y127.808 E6.92310
G1 X97.530 Y127.599 E6.98963
G1 X96.488 Y127.069 E7.04795
G1 X95.302 Y126.463 E7.11440
G1 X93.535 Y124.695 E7.23910
G1 X92.400 Y122.468 E7.36381
G1 X92.218 Y121.314 E7.42209
G1 X92.010 Y120.001 E7.48842
G1 X92.192 Y118.847 E7.54670
G1 X92.401 Y117.530 E7.61323
G1 X93.535 Y115.304 E7.73786
G1 X95.303 Y113.536 E7.86261
G1 F2400 E3.86261
G0 F9000 X97.565 Y116.647
;TYPE:WALL-INNER
G1 F2400 E7.86261
G1 F1800 X98.717 Y116.059 E7.92713
G1 X100.000 Y115.858 E7.99192
G1 X101.281 Y116.059 E8.05661
G1 X102.435 Y116.648 E8.12125
G1 X103.351 Y117.564 E8.18588
G1 X103.939 Y118.718 E8.25050
G1 X104.142 Y120.000 E8.31525
G1 X104.054 Y120.558 E8.34344
G1 X103.939 Y121.281 E8.37996
G1 X103.351 Y122.435 E8.44458
G1 X102.435 Y123.351 E8.50921
G1 X101.280 Y123.940 E8.57389
G1 X100.000 Y124.142 E8.63854
G1 X98.719 Y123.940 E8.70324
G1 X97.564 Y123.351 E8.76792
G1 X96.648 Y122.435 E8.83255
G1 X96.060 Y121.281 E8.89717
G1 X95.858 Y120.000 E8.96187
G1 X96.060 Y118.718 E9.02661
G1 X96.648 Y117.564 E9.09123
G1 X97.565 Y116.647 E9.15593
G0 F9000 X98.436 Y117.626
G1 F1800 X98.316 Y117.690 E9.16271
G1 X97.686 Y118.318 E9.20709
G1 X97.346 Y118.988 E9.24458
G1 X97.281 Y119.112 E9.25156
G1 X97.161 Y119.866 E9.28965
G1 X97.139 Y119.995 E9.29618
G1 X97.259 Y120.754 E9.33452
G1 X97.282 Y120.887 E9.34125
G1 X97.626 Y121.564 E9.37914
G1 X97.690 Y121.684 E9.38592
G1 X98.319 Y122.313 E9.43030
G1 X98.988 Y122.653 E9.46774
G1 X99.112 Y122.718 E9.47473
G1 X99.867 Y122.837 E9.51286
G1 X99.995 Y122.859 E9.51934
G1 X100.753 Y122.740 E9.55762
G1 X100.887 Y122.717 E9.56440
G1 X101.563 Y122.373 E9.60224
G1 X101.683 Y122.309 E9.60903
G1 X102.313 Y121.681 E9.65341
G1 X102.653 Y121.011 E9.69089
G1 X102.718 Y120.887 E9.69788
G1 X102.838 Y120.134 E9.73592
G1 X102.860 Y120.005 E9.74245
G1 X102.740 Y119.245 E9.78083
G1 X102.717 Y119.112 E9.78757
G1 X102.373 Y118.435 E9.82545
G1 X102.309 Y118.315 E9.83224
G1 X101.680 Y117.686 E9.87662
G1 X101.003 Y117.342 E9.91450
G1 X100.887 Y117.281 E9.92104
G1 X100.134 Y117.161 E9.95908
G1 X100.005 Y117.139 E9.96561
G1 X99.116 Y117.280 E10.01052
G1 X98.436 Y117.626 E10.04858
G0 F9000 X98.620 Y117.981
;TYPE:WALL-OUTER
G1 F1800 X98.556 Y118.015 E10.05220
G1 X98.014 Y118.556 E10.09040
G1 X97.700 Y119.175 E10.12503
G1 X97.666 Y119.240 E10.12869
G1 X97.556 Y119.929 E10.16350
G1 X97.544 Y119.998 E10.16700
G1 X97.654 Y120.688 E10.20186
G1 X97.666 Y120.759 E10.20545
G1 X97.981 Y121.380 E10.24019
G1 X98.015 Y121.444 E10.24380
G1 X98.557 Y121.985 E10.28201
G1 X99.175 Y122.299 E10.31659
G1 X99.240 Y122.333 E10.32025
G1 X99.929 Y122.442 E10.35505
G1 X99.998 Y122.454 E10.35855
G1 X100.688 Y122.345 E10.39340
G1 X100.759 Y122.333 E10.39699
G1 X101.379 Y122.018 E10.43169
G1 X101.443 Y121.984 E10.43530
G1 X101.985 Y121.443 E10.47351
G1 X102.299 Y120.824 E10.50814
G1 X102.333 Y120.759 E10.51180
G1 X102.443 Y120.071 E10.54656
G1 X102.455 Y120.002 E10.55005
G1 X102.345 Y119.311 E10.58496
G1 X102.333 Y119.240 E10.58855
G1 X102.018 Y118.619 E10.62329
G1 X101.984 Y118.555 E10.62691
G1 X101.442 Y118.014 E10.66511
G1 X100.822 Y117.699 E10.69981
G1 X100.759 Y117.666 E10.70336
G1 X100.071 Y117.556 E10.73812
G1 X100.002 Y117.544 E10.74161
G1 X99.241 Y117.665 E10.78005
G1 X98.620 Y117.981 E10.81482
G0 F9000 X98.474 Y117.719
G0 X97.500 Y116.568
G0 X97.326 Y116.320
G1 F1800 X98.592 Y115.674 E10.88572
G1 X100.000 Y115.453 E10.95683
G1 X101.407 Y115.674 E11.02789
G1 X102.673 Y116.320 E11.09879
G1 X103.679 Y117.326 E11.16977
G1 X104.324 Y118.592 E11.24066
G1 X104.547 Y119.998 E11.31168
G1 X104.324 Y121.407 E11.38285
G1 X103.679 Y122.673 E11.45374
G1 X102.673 Y123.679 E11.52472
G1 X101.407 Y124.325 E11.59563
G1 X100.000 Y124.547 E11.66669
G1 X98.592 Y124.325 E11.73780
G1 X97.326 Y123.679 E11.80871
G1 X96.320 Y122.673 E11.87969
G1 X95.675 Y121.407 E11.95058
G1 X95.453 Y119.998 E12.02174
G1 X95.675 Y118.592 E12.09275
G1 X96.320 Y117.326 E12.16364
G1 X97.326 Y116.320 E12.23462
G0 F9000 X97.756 Y116.706
;TYPE:SKIN
G1 F1800 X98.490 Y117.441 E12.28644
G0 F9000 X98.144 Y117.660
G1 F1800 X97.446 Y116.962 E12.33569
G0 F9000 X97.163 Y117.245
G1 F1800 X97.861 Y117.943 E12.38494
G0 F9000 X97.578 Y118.226
G1 F1800 X96.880 Y117.528 E12.43418
G0 F9000 X96.650 Y117.864
G1 F1800 X97.386 Y118.599 E12.48608
G0 F9000 X97.195 Y118.974
G1 F1800 X96.459 Y118.238 E12.53801
G0 F9000 X96.269 Y118.613
G1 F1800 X97.087 Y119.432 E12.59576
G0 F9000 X97.008 Y119.918
G1 F1800 X96.148 Y119.058 E12.65643
G0 F9000 X96.071 Y119.547
G1 F1800 X97.088 Y120.564 E12.72819
G0 F9000 X97.415 Y121.457
G1 F1800 X96.008 Y120.049 E12.82749
G0 F9000 X96.113 Y120.720
G1 F1800 X99.277 Y123.885 E13.05077
G0 F9000 X99.948 Y123.990
G1 F1800 X98.543 Y122.585 E13.14990
G0 F9000 X99.435 Y122.911
G1 F1800 X100.451 Y123.927 E13.22158
G0 F9000 X100.940 Y123.850
G1 F1800 X100.077 Y122.987 E13.28247
G0 F9000 X100.565 Y122.910
G1 F1800 X101.384 Y123.728 E13.34022
G0 F9000 X101.759 Y123.537
G1 F1800 X101.025 Y122.803 E13.39201
G0 F9000 X101.399 Y122.612
G1 F1800 X102.133 Y123.346 E13.44380
G0 F9000 X102.470 Y123.117
G1 F1800 X101.771 Y122.419 E13.49308
G0 F9000 X102.054 Y122.136
G1 F1800 X102.753 Y122.835 E13.54240
G0 F9000 X103.036 Y122.552
G1 F1800 X102.338 Y121.854 E13.59164
G0 F9000 X102.557 Y121.507
G1 F1800 X103.292 Y122.243 E13.64354
G0 F9000 X103.483 Y121.868
G1 F1800 X102.748 Y121.133 E13.69540
G0 F9000 X102.888 Y120.708
G1 F1800 X103.674 Y121.493 E13.75082
G0 F9000 X103.828 Y121.082
G1 F1800 X102.968 Y120.221 E13.81153
G0 F9000 X102.942 Y119.630
G1 F1800 X103.906 Y120.594 E13.87955
G0 F9000 X103.983 Y120.105
G1 F1800 X102.755 Y118.877 E13.96619
G0 F9000 X103.811 Y118.801
G1 F1800 X101.196 Y116.186 E14.15069
G0 F9000 X100.525 Y116.082
G1 F1800 X103.917 Y119.473 E14.38998
G0 F9000 X103.252 Y117.677
G1 F1800 X102.321 Y116.746 E14.45567
G0 F9000 X101.119 Y117.241
G1 F1800 X99.894 Y116.016 E14.54210
G0 F9000 X99.405 Y116.092
G1 F1800 X100.366 Y117.053 E14.60990
G0 F9000 X99.777 Y117.031
G1 F1800 X98.915 Y116.169 E14.67072
G0 F9000 X98.504 Y116.324
G1 F1800 X99.289 Y117.108 E14.72607
G0 F9000 X98.864 Y117.249
G1 F1800 X98.130 Y116.514 E14.77789
G0 F9000 X96.330 Y121.503
G1 F1800 X98.495 Y123.668 E14.93065
;LAYER:1
M106 S79
G0 F9000 X98.785 Y123.951 Z0.500
;TYPE:WALL-INNER
G1 F1920 X98.720 Y123.941 E14.93283
G1 X97.565 Y123.352 E14.97595
G1 X96.648 Y122.435 E15.01909
G1 X96.060 Y121.281 E15.06217
G1 X95.869 Y120.066 E15.10307
G1 X95.858 Y119.999 E15.10533
G1 X96.049 Y118.785 E15.14621
G1 X96.059 Y118.721 E15.14836
G1 X96.648 Y117.564 E15.19154
G1 X97.565 Y116.647 E15.23467
G1 X98.717 Y116.059 E15.27769
G1 X100.000 Y115.858 E15.32089
G1 X101.282 Y116.059 E15.36405
G1 X102.434 Y116.647 E15.40706
G1 X103.351 Y117.564 E15.45020
G1 X103.939 Y118.718 E15.49327
G1 X104.142 Y119.999 E15.53641
G1 X103.950 Y121.213 E15.57729
G1 X103.940 Y121.278 E15.57948
G1 X103.351 Y122.435 E15.62266
G1 X102.434 Y123.352 E15.66579
G1 X101.282 Y123.940 E15.70881
G1 X100.066 Y124.131 E15.74975
G1 X99.999 Y124.142 E15.75201
G1 X98.785 Y123.951 E15.79288
G0 F9000 X98.958 Y122.638
G1 F1920 X99.115 Y122.719 E15.79876
G1 X99.827 Y122.831 E15.82273
G1 X99.999 Y122.859 E15.82853
G1 X100.710 Y122.746 E15.85247
G1 X100.884 Y122.718 E15.85834
G1 X101.524 Y122.392 E15.88222
G1 X101.681 Y122.312 E15.88809
G1 X102.313 Y121.681 E15.91779
G1 X102.638 Y121.041 E15.94166
G1 X102.718 Y120.884 E15.94752
G1 X102.832 Y120.174 E15.97144
G1 X102.860 Y120.001 E15.97727
G1 X102.746 Y119.289 E16.00125
G1 X102.718 Y119.116 E16.00708
G1 X102.392 Y118.474 E16.03103
G1 X102.312 Y118.317 E16.03689
G1 X101.680 Y117.686 E16.06659
G1 X101.039 Y117.360 E16.09051
G1 X100.884 Y117.281 E16.09630
G1 X100.174 Y117.167 E16.12022
G1 X100.001 Y117.139 E16.12604
G1 X99.116 Y117.280 E16.15585
G1 X98.475 Y117.607 E16.17979
G1 X98.318 Y117.687 E16.18565
G1 X97.686 Y118.318 E16.21535
G1 X97.361 Y118.958 E16.23922
G1 X97.281 Y119.115 E16.24508
G1 X97.167 Y119.826 E16.26903
G1 X97.139 Y119.999 E16.27486
G1 X97.253 Y120.710 E16.29881
G1 X97.281 Y120.883 E16.30464
G1 X97.607 Y121.525 E16.32859
G1 X97.687 Y121.682 E16.33445
G1 X98.319 Y122.313 E16.36415
G1 X98.958 Y122.638 E16.38800
G0 F9000 X99.242 Y122.334
;TYPE:WALL-OUTER
G1 F1680 X100.000 Y122.453 E16.41352
G1 X100.757 Y122.334 E16.43901
G1 X101.442 Y121.985 E16.46458
G1 X101.985 Y121.443 E16.49009
G1 X102.334 Y120.758 E16.51566
G1 X102.455 Y120.000 E16.54119
G1 X102.334 Y119.241 E16.56676
G1 X101.985 Y118.556 E16.59233
G1 X101.442 Y118.014 E16.61784
G1 X100.758 Y117.665 E16.64338
G1 X100.000 Y117.544 E16.66891
G1 X99.241 Y117.665 E16.69448
G1 X98.557 Y118.014 E16.72002
G1 X98.014 Y118.556 E16.74554
G1 X97.665 Y119.241 E16.77111
G1 X97.544 Y120.000 E16.79667
G1 X97.665 Y120.758 E16.82220
G1 X98.014 Y121.443 E16.84777
G1 X98.557 Y121.985 E16.87329
G1 X99.242 Y122.334 E16.89886
G0 F9000 X99.107 Y122.601
G0 X98.693 Y124.040
G0 X98.592 Y124.325
G1 F1680 X97.326 Y123.679 E16.94613
G1 X96.320 Y122.673 E16.99345
G1 X95.675 Y121.407 E17.04070
G1 X95.453 Y120.000 E17.08808
G1 X95.675 Y118.592 E17.13549
G1 X96.320 Y117.326 E17.18275
G1 X97.326 Y116.320 E17.23007
G1 X98.592 Y115.674 E17.27734
G1 X100.000 Y115.453 E17.32474
G1 X101.407 Y115.674 E17.37211
G1 X102.673 Y116.320 E17.41939
G1 X103.679 Y117.326 E17.46670
G1 X104.324 Y118.592 E17.51396
G1 X104.547 Y120.000 E17.56138
G1 X104.324 Y121.407 E17.60876
G1 X103.679 Y122.673 E17.65601
G1 X102.673 Y123.679 E17.70333
G1 X101.407 Y124.325 E17.75061
G1 X100.000 Y124.547 E17.79798
G1 X98.592 Y124.325 E17.84539
G0 F9000 X98.787 Y123.809
;TYPE:SKIN
G1 F1680 X99.651 Y122.945 E17.88603
G0 F9000 X99.163 Y122.867
G1 F1680 X98.407 Y123.624 E17.92161
G0 F9000 X98.032 Y123.433
G1 F1680 X98.767 Y122.698 E17.95619
G0 F9000 X98.392 Y122.507
G1 F1680 X97.657 Y123.242 E17.99076
G0 F9000 X97.372 Y122.961
G1 F1680 X98.070 Y122.263 E18.02359
G0 F9000 X97.787 Y121.980
G1 F1680 X97.090 Y122.678 E18.05640
G0 F9000 X96.807 Y122.395
G1 F1680 X97.526 Y121.676 E18.09022
G0 F9000 X97.336 Y121.301
G1 F1680 X96.602 Y122.035 E18.12474
G0 F9000 X96.411 Y121.660
G1 F1680 X97.145 Y120.926 E18.15927
G0 F9000 X97.067 Y120.438
G1 F1680 X96.220 Y121.285 E18.19911
G0 F9000 X96.128 Y120.812
G1 F1680 X97.007 Y119.933 E18.24045
G0 F9000 X97.115 Y119.259
G1 F1680 X96.051 Y120.323 E18.29050
G0 F9000 X99.277 Y123.885
G1 F1680 X100.193 Y122.969 E18.33359
G0 F9000 X100.866 Y122.861
G1 F1680 X99.765 Y123.962 E18.38537
G0 F9000 X100.349 Y123.944
G1 F1680 X103.944 Y120.349 E18.55447
G0 F9000 X103.962 Y119.766
G1 F1680 X102.863 Y120.865 E18.60617
G0 F9000 X102.971 Y120.191
G1 F1680 X103.885 Y119.277 E18.64916
G0 F9000 X103.808 Y118.788
G1 F1680 X102.946 Y119.650 E18.68970
G0 F9000 X102.868 Y119.163
G1 F1680 X103.624 Y118.407 E18.72526
G0 F9000 X103.432 Y118.033
G1 F1680 X102.699 Y118.766 E18.75974
G0 F9000 X102.508 Y118.391
G1 F1680 X103.241 Y117.658 E18.79422
G0 F9000 X102.962 Y117.371
G1 F1680 X102.263 Y118.070 E18.82710
G0 F9000 X101.981 Y117.787
G1 F1680 X102.679 Y117.089 E18.85993
G0 F9000 X102.396 Y116.806
G1 F1680 X101.676 Y117.526 E18.89380
G0 F9000 X101.301 Y117.335
G1 F1680 X102.037 Y116.599 E18.92842
G0 F9000 X101.662 Y116.408
G1 F1680 X100.925 Y117.146 E18.96311
G0 F9000 X100.438 Y117.067
G1 F1680 X101.288 Y116.217 E19.00309
G0 F9000 X100.813 Y116.126
G1 F1680 X99.932 Y117.007 E19.04453
G0 F9000 X99.260 Y117.114
G1 F1680 X100.325 Y116.049 E19.09462
G0 F9000 X99.774 Y116.034
G1 F1680 X98.241 Y117.567 E19.16673
G0 F9000 X97.566 Y118.242
G1 F1680 X96.035 Y119.773 E19.23874
G0 F9000 X96.141 Y119.102
G1 F1680 X99.104 Y116.138 E19.37814
G0 F9000 X98.197 Y116.480
G1 F1680 X96.484 Y118.192 E19.45869
G0 F9000 X97.690 Y121.680
G0 X99.117 Y122.716
G0 X101.021 Y123.838
G1 F1680 X103.838 Y121.021 E19.59119
G0 F9000 X103.403 Y122.021
G1 F1680 X102.019 Y123.405 E19.65629
;LAYER:2
M106 S255
G0 F9000 X101.846 Y122.542 Z0.700
;TYPE:WALL-INNER
G1 F960 X100.971 Y122.988 E19.68895
G1 X100.000 Y123.142 E19.72165
G1 X99.028 Y122.988 E19.75439
G1 X98.153 Y122.542 E19.78705
G1 X97.456 Y121.844 E19.81986
G1 X97.012 Y120.972 E19.85240
G1 X96.858 Y119.998 E19.88520
G1 X97.010 Y119.029 E19.91783
G1 X97.456 Y118.155 E19.95046
G1 X98.153 Y117.457 E19.98327
G1 X99.028 Y117.011 E20.01593
G1 X100.001 Y116.858 E20.04869
G1 X100.968 Y117.010 E20.08125
G1 X101.846 Y117.457 E20.11402
G1 X102.543 Y118.155 E20.14683
G1 X102.988 Y119.027 E20.17939
G1 X103.142 Y119.998 E20.21209
G1 X102.988 Y120.972 E20.24489
G1 X102.543 Y121.844 E20.27745
G1 X101.846 Y122.542 E20.31026
G0 F9000 X101.680 Y122.313
G1 F960 X102.312 Y121.681 E20.33998
G1 X102.719 Y120.882 E20.36981
G1 X102.824 Y120.219 E20.39213
G1 X102.860 Y120.003 E20.39942
G1 X102.753 Y119.328 E20.42215
G1 X102.718 Y119.114 E20.42936
G1 X102.312 Y118.318 E20.45908
G1 X101.680 Y117.686 E20.48881
G1 X100.883 Y117.280 E20.51856
G1 X100.214 Y117.174 E20.54109
G1 X100.002 Y117.139 E20.54823
G1 X99.116 Y117.280 E20.57807
