; generated by Slic3r 1.1.7 on 2016-12-25 at 22:58:36

; perimeters extrusion width = 0.40mm
; infill extrusion width = 0.87mm
; solid infill extrusion width = 0.68mm
; top infill extrusion width = 0.68mm
; support material extrusion width = 0.40mm

G21 ; set units to millimeters
M107
M104 S205 ; set temperature
G28 ; home all axes
G1 Z5 F5000 ; lift nozzle

M109 S205 ; wait for temperature to be reached
G90 ; use absolute coordinates
G92 E0
M82 ; use absolute distances for extrusion
G1 F1800.000 E-1.00000
G92 E0
G1 Z0.150 F7800.000
G1 X96.978 Y93.342 F7800.000
G1 E1.00000 F1800.000
G1 X97.960 Y92.487 E1.02611 F1080.000
G1 X99.464 Y91.416 E1.06312
G1 X100.594 Y90.768 E1.08923
G1 X102.278 Y90.011 E1.12625
G1 X103.513 Y89.597 E1.15235
G1 X105.312 Y89.183 E1.18937
G1 X106.604 Y89.017 E1.21548
G1 X108.449 Y88.963 E1.25249
G1 X109.749 Y89.052 E1.27860
G1 X111.570 Y89.359 E1.31562 F1080.000
G1 X112.826 Y89.700 E1.34173
G1 X114.552 Y90.356 E1.37874
G1 X115.719 Y90.935 E1.40485
G1 X117.284 Y91.915 E1.44187
G1 X118.314 Y92.711 E1.46797
G1 X119.658 Y93.978 E1.50499
G1 X120.513 Y94.960 E1.53110
G1 X121.584 Y96.464 E1.56811
G1 X122.232 Y97.594 E1.59422
G1 X122.989 Y99.278 E1.63124
G1 X123.403 Y100.513 E1.65734
G1 X123.817 Y102.312 E1.69436
G1 X123.983 Y103.604 E1.72047
G1 X124.037 Y105.450 E1.75748
G1 X123.948 Y106.749 E1.78359
G1 X123.641 Y108.570 E1.82061
G1 X123.300 Y109.826 E1.84671
G1 X122.644 Y111.552 E1.88373
G1 X122.065 Y112.719 E1.90984
G1 X121.085 Y114.284 E1.94686
G1 X120.289 Y115.314 E1.97296
G1 X119.022 Y116.658 E2.00998
G1 X118.040 Y117.513 E2.03609
G1 X116.536 Y118.584 E2.07310
G1 X115.406 Y119.232 E2.09921
G1 X113.722 Y119.989 E2.13623
G1 X112.487 Y120.403 E2.16233
G1 X110.688 Y120.817 E2.19935
G1 X109.396 Y120.983 E2.22546
G1 X107.550 Y121.037 E2.26247
G1 X106.251 Y120.948 E2.28858
G1 X104.430 Y120.641 E2.32560
G1 X103.174 Y120.300 E2.35171
G1 X101.448 Y119.644 E2.38872
G1 X100.281 Y119.065 E2.41483
G1 X98.716 Y118.085 E2.45185
G1 X97.686 Y117.289 E2.47795
G1 X96.342 Y116.022 E2.51497
G1 X95.487 Y115.040 E2.54108
G1 X94.416 Y113.536 E2.57809
G1 X93.768 Y112.406 E2.60420
G1 X93.011 Y110.722 E2.64122
G1 X92.597 Y109.487 E2.66732
G1 X92.183 Y107.688 E2.70434
G1 X92.017 Y106.396 E2.73045
G1 X91.963 Y104.551 E2.76746
G1 X92.052 Y103.251 E2.79357
G1 X92.359 Y101.430 E2.83059
G1 X92.700 Y100.174 E2.85670
G1 X93.356 Y98.448 E2.89371
G1 X93.935 Y97.281 E2.91982
G1 X94.915 Y95.716 E2.95684
G1 X95.711 Y94.686 E2.98294
G1 X96.937 Y93.386 E3.01876
G1 X97.212 Y93.563 F7800.000
G1 X98.146 Y92.748 E3.04360 F1080.000
G1 X99.650 Y91.678 E3.08062
G1 X100.726 Y91.061 E3.10546
G1 X102.410 Y90.305 E3.14248
G1 X103.585 Y89.910 E3.16732
G1 X105.384 Y89.496 E3.20434
G1 X106.613 Y89.339 E3.22918
G1 X108.459 Y89.284 E3.26620
G1 X109.695 Y89.369 E3.29104
G1 X111.516 Y89.676 E3.32806 F1080.000
G1 X112.712 Y90.000 E3.35290
G1 X114.438 Y90.656 E3.38992
G1 X115.548 Y91.208 E3.41476
G1 X117.113 Y92.188 E3.45178
G1 X118.094 Y92.945 E3.47662
G1 X119.437 Y94.212 E3.51364
G1 X120.252 Y95.146 E3.53848
G1 X121.322 Y96.650 E3.57550
G1 X121.939 Y97.726 E3.60034
G1 X122.695 Y99.410 E3.63736
G1 X123.090 Y100.585 E3.66220
G1 X123.504 Y102.384 E3.69922
G1 X123.661 Y103.613 E3.72406
G1 X123.716 Y105.459 E3.76108
G1 X123.631 Y106.695 E3.78592
G1 X123.324 Y108.516 E3.82294
G1 X123.000 Y109.712 E3.84779
G1 X122.344 Y111.438 E3.88480
G1 X121.792 Y112.548 E3.90965
G1 X120.812 Y114.113 E3.94666
G1 X120.055 Y115.094 E3.97151
G1 X118.788 Y116.437 E4.00852
G1 X117.854 Y117.252 E4.03337
G1 X116.350 Y118.322 E4.07038
G1 X115.274 Y118.939 E4.09523
G1 X113.590 Y119.695 E4.13224
G1 X112.415 Y120.090 E4.15709
G1 X110.616 Y120.504 E4.19411
G1 X109.387 Y120.661 E4.21895
G1 X107.541 Y120.716 E4.25597
G1 X106.305 Y120.631 E4.28081
G1 X104.484 Y120.324 E4.31783
G1 X103.288 Y120.000 E4.34267
G1 X101.562 Y119.344 E4.37969
G1 X100.452 Y118.792 E4.40453
G1 X98.887 Y117.812 E4.44155
G1 X97.906 Y117.055 E4.46639
G1 X96.563 Y115.788 E4.50341
G1 X95.748 Y114.854 E4.52825
G1 X94.678 Y113.350 E4.56527
G1 X94.061 Y112.274 E4.59011
G1 X93.305 Y110.590 E4.62713
G1 X92.910 Y109.415 E4.65197
G1 X92.496 Y107.616 E4.68899
G1 X92.339 Y106.387 E4.71383
G1 X92.284 Y104.541 E4.75085
G1 X92.369 Y103.305 E4.77569
G1 X92.676 Y101.484 E4.81271
G1 X93.000 Y100.288 E4.83755
G1 X93.656 Y98.562 E4.87457
G1 X94.208 Y97.452 E4.89941
G1 X95.188 Y95.887 E4.93643
G1 X95.945 Y94.906 E4.96127
G1 X97.171 Y93.606 E4.99709
G1 F1800.000 E3.99709
G92 E0
G1 X109.043 Y106.043 F7800.000
G1 E1.00000 F1800.000
G1 X108.738 Y106.278 E1.00772 F540.000
G1 X108.382 Y106.425 E1.01544
G1 X108.000 Y106.476 E1.02317
G1 X107.618 Y106.425 E1.03089
G1 X107.262 Y106.278 E1.03861
G1 X106.957 Y106.043 E1.04633
G1 X106.722 Y105.738 E1.05405
G1 X106.575 Y105.382 E1.06178
G1 X106.524 Y105.000 E1.06950
G1 X106.575 Y104.618 E1.07722
G1 X106.722 Y104.262 E1.08494
G1 X106.957 Y103.957 E1.09266
G1 X107.262 Y103.722 E1.10039
G1 X107.618 Y103.575 E1.10811
G1 X108.000 Y103.524 E1.11583
G1 X108.382 Y103.575 E1.12355
G1 X108.738 Y103.722 E1.13127 F540.000
G1 X109.043 Y103.957 E1.13900
G1 X109.278 Y104.262 E1.14672
G1 X109.425 Y104.618 E1.15444
G1 X109.476 Y105.000 E1.16216
G1 X109.425 Y105.382 E1.16988
G1 X109.278 Y105.738 E1.17761
G1 X109.080 Y105.996 E1.18412
G1 X108.814 Y105.814 F7800.000
G1 X108.576 Y105.997 E1.19015 F378.000
G1 X108.298 Y106.112 E1.19617
G1 X108.000 Y106.151 E1.20220
G1 X107.702 Y106.112 E1.20823
G1 X107.424 Y105.997 E1.21425
G1 X107.186 Y105.814 E1.22028
G1 X107.003 Y105.576 E1.22630
G1 X106.888 Y105.298 E1.23233
G1 X106.849 Y105.000 E1.23835
G1 X106.888 Y104.702 E1.24438
G1 X107.003 Y104.424 E1.25040
G1 X107.186 Y104.186 E1.25643
G1 X107.424 Y104.003 E1.26245
G1 X107.702 Y103.888 E1.26848
G1 X108.000 Y103.849 E1.27450 F378.000
G1 X108.298 Y103.888 E1.28053
G1 X108.576 Y104.003 E1.28655
G1 X108.814 Y104.186 E1.29258
G1 X108.997 Y104.424 E1.29860
G1 X109.112 Y104.702 E1.30463
G1 X109.151 Y105.000 E1.31065
G1 X109.112 Y105.298 E1.31668
G1 X108.997 Y105.576 E1.32270
G1 X108.851 Y105.766 E1.32753
G1 F1800.000 E0.32753
G92 E0
G1 X107.612 Y103.601 F7800.000
G1 X113.056 Y110.561 F7800.000
G1 E1.00000 F1800.000
G1 X113.014 Y110.599 E1.00113 F540.000
G1 X113.034 Y110.643 E1.00211
G1 X112.893 Y110.768 E1.00588
G1 X112.875 Y110.757 E1.00630
G1 X111.832 Y111.497 E1.03193
G1 X111.836 Y111.517 E1.03235
G1 X111.673 Y111.611 E1.03612
G1 X111.637 Y111.578 E1.03712
G1 X111.266 Y111.782 E1.04561
G1 X110.490 Y112.104 E1.06244
G1 X110.491 Y112.140 E1.06317
G1 X110.313 Y112.201 E1.06695
G1 X110.285 Y112.163 E1.06788
G1 X109.675 Y112.339 E1.08061
G1 X109.058 Y112.444 E1.09315
G1 X109.050 Y112.489 E1.09408
G1 X108.864 Y112.514 E1.09785
G1 X108.848 Y112.480 E1.09860
G1 X108.000 Y112.528 E1.11562
G1 X107.587 Y112.505 E1.12392
G1 X107.569 Y112.550 E1.12490
G1 X107.381 Y112.538 E1.12867
G1 X107.376 Y112.518 E1.12909
G1 X106.116 Y112.303 E1.15472
G1 X106.104 Y112.321 E1.15514
G1 X105.923 Y112.272 E1.15891
G1 X105.920 Y112.222 E1.15991
G1 X105.514 Y112.105 E1.16840
G1 X104.738 Y111.784 E1.18523
G1 X104.713 Y111.811 E1.18596
G1 X104.544 Y111.727 E1.18974
G1 X104.551 Y111.681 E1.19067
G1 X103.995 Y111.374 E1.20340
G1 X103.485 Y111.012 E1.21594
G1 X103.447 Y111.038 E1.21687
G1 X103.298 Y110.924 E1.22064
G1 X103.310 Y110.889 E1.22139
G1 X102.677 Y110.323 E1.23841
G1 X102.401 Y110.014 E1.24671
G1 X102.357 Y110.034 E1.24769
G1 X102.232 Y109.893 E1.25146
G1 X102.243 Y109.875 E1.25188
G1 X101.503 Y108.832 E1.27751
G1 X101.483 Y108.836 E1.27793
G1 X101.389 Y108.673 E1.28170
G1 X101.422 Y108.637 E1.28270
G1 X101.218 Y108.266 E1.29119
G1 X100.896 Y107.490 E1.30802
G1 X100.860 Y107.491 E1.30875
G1 X100.799 Y107.313 E1.31253
G1 X100.837 Y107.285 E1.31346
G1 X100.661 Y106.675 E1.32619
G1 X100.556 Y106.058 E1.33873
G1 X100.511 Y106.050 E1.33966
G1 X100.486 Y105.864 E1.34343
G1 X100.520 Y105.848 E1.34417
G1 X100.472 Y105.000 E1.36120
G1 X100.495 Y104.587 E1.36950
G1 X100.450 Y104.569 E1.37048
G1 X100.462 Y104.381 E1.37425
G1 X100.482 Y104.376 E1.37467
G1 X100.696 Y103.116 E1.40030
G1 X100.679 Y103.104 E1.40072
G1 X100.728 Y102.923 E1.40449
G1 X100.778 Y102.920 E1.40549
G1 X100.895 Y102.514 E1.41397
G1 X101.216 Y101.738 E1.43081
G1 X101.189 Y101.713 E1.43154
G1 X101.273 Y101.544 E1.43532
G1 X101.319 Y101.551 E1.43625
G1 X101.626 Y100.995 E1.44898
G1 X101.988 Y100.485 E1.46152
G1 X101.962 Y100.447 E1.46245
G1 X102.076 Y100.298 E1.46622
G1 X102.111 Y100.310 E1.46696
G1 X102.677 Y99.677 E1.48399
G1 X102.986 Y99.401 E1.49228
G1 X102.966 Y99.357 E1.49326
G1 X103.107 Y99.232 E1.49704
G1 X103.125 Y99.243 E1.49745
G1 X104.168 Y98.503 E1.52309
G1 X104.164 Y98.483 E1.52351
G1 X104.327 Y98.389 E1.52728
G1 X104.363 Y98.422 E1.52828
G1 X104.734 Y98.218 E1.53676
G1 X105.510 Y97.896 E1.55359
G1 X105.509 Y97.860 E1.55433
G1 X105.687 Y97.799 E1.55810
G1 X105.715 Y97.837 E1.55904
G1 X106.325 Y97.661 E1.57177
G1 X106.942 Y97.556 E1.58431
G1 X106.950 Y97.511 E1.58523
G1 X107.136 Y97.486 E1.58901
G1 X107.152 Y97.520 E1.58975
G1 X108.000 Y97.472 E1.60678
G1 X108.413 Y97.495 E1.61507
G1 X108.431 Y97.450 E1.61605 F540.000
G1 X108.619 Y97.462 E1.61983
G1 X108.624 Y97.482 E1.62024
G1 X109.884 Y97.697 E1.64588
G1 X109.896 Y97.679 E1.64629
G1 X110.077 Y97.728 E1.65007
G1 X110.080 Y97.778 E1.65107
G1 X110.486 Y97.895 E1.65955
G1 X111.262 Y98.216 E1.67638
G1 X111.287 Y98.189 E1.67712
G1 X111.456 Y98.273 E1.68089
G1 X111.449 Y98.319 E1.68183
G1 X112.005 Y98.626 E1.69456
G1 X112.515 Y98.988 E1.70710
G1 X112.553 Y98.962 E1.70802
G1 X112.702 Y99.076 E1.71179
G1 X112.690 Y99.111 E1.71254
G1 X113.323 Y99.677 E1.72956
G1 X113.599 Y99.986 E1.73786
G1 X113.643 Y99.966 E1.73884
G1 X113.768 Y100.107 E1.74261
G1 X113.757 Y100.125 E1.74303
G1 X114.497 Y101.168 E1.76866
G1 X114.517 Y101.164 E1.76908
G1 X114.611 Y101.327 E1.77285
G1 X114.578 Y101.363 E1.77385
G1 X114.782 Y101.734 E1.78234
G1 X115.104 Y102.510 E1.79917
G1 X115.140 Y102.509 E1.79990
G1 X115.201 Y102.687 E1.80368
G1 X115.163 Y102.715 E1.80461
G1 X115.339 Y103.325 E1.81734
G1 X115.444 Y103.942 E1.82988
G1 X115.489 Y103.950 E1.83081
G1 X115.514 Y104.136 E1.83458
G1 X115.480 Y104.152 E1.83532
G1 X115.528 Y105.000 E1.85235
G1 X115.505 Y105.413 E1.86065
G1 X115.550 Y105.431 E1.86163
G1 X115.538 Y105.619 E1.86540
G1 X115.518 Y105.624 E1.86582
G1 X115.303 Y106.884 E1.89145
G1 X115.321 Y106.896 E1.89187
G1 X115.272 Y107.077 E1.89564
G1 X115.222 Y107.080 E1.89664
G1 X115.105 Y107.486 E1.90512
G1 X114.784 Y108.262 E1.92196
G1 X114.811 Y108.287 E1.92269
G1 X114.727 Y108.456 E1.92647
G1 X114.681 Y108.449 E1.92740
G1 X114.374 Y109.005 E1.94013
G1 X114.012 Y109.515 E1.95267
G1 X114.038 Y109.553 E1.95359
G1 X113.924 Y109.702 E1.95737
G1 X113.889 Y109.690 E1.95811
G1 X113.323 Y110.323 E1.97514
G1 X113.101 Y110.521 E1.98110
G1 X112.889 Y111.141 F7800.000
G1 X112.192 Y111.636 E1.99824 F378.000
G1 X112.368 Y112.438 E2.01472
G1 X112.205 Y112.532 E2.01849
G1 X111.590 Y111.971 E2.03520
G1 X111.406 Y112.072 E2.03942
G1 X110.816 Y112.317 E2.05221
G1 X110.833 Y113.148 E2.06887
G1 X110.655 Y113.208 E2.07264
G1 X110.159 Y112.534 E2.08942
G1 X109.747 Y112.653 E2.09802
G1 X109.335 Y112.723 E2.10639
G1 X109.189 Y113.544 E2.12311
G1 X109.003 Y113.568 E2.12688
G1 X108.649 Y112.813 E2.14360
G1 X108.000 Y112.850 E2.15663
G1 X107.802 Y112.839 E2.16061
G1 X107.500 Y113.612 E2.17725
G1 X107.312 Y113.599 E2.18103
G1 X107.115 Y112.799 E2.19755
G1 X106.272 Y112.656 E2.21468
G1 X105.829 Y113.349 E2.23116
G1 X105.647 Y113.300 E2.23493
G1 X105.610 Y112.468 E2.25164
G1 X105.407 Y112.409 E2.25586
G1 X104.818 Y112.165 E2.26865
G1 X104.242 Y112.765 E2.28531
G1 X104.073 Y112.682 E2.28909
G1 X104.199 Y111.854 E2.30586
G1 X103.824 Y111.647 E2.31447
G1 X103.483 Y111.405 E2.32283
G1 X102.800 Y111.882 E2.33955
G1 X102.650 Y111.768 E2.34332
G1 X102.934 Y110.984 E2.36004
G1 X102.449 Y110.551 E2.37307
G1 X102.317 Y110.402 E2.37706
G1 X101.557 Y110.736 E2.39369
G1 X101.433 Y110.594 E2.39747
G1 X101.859 Y109.889 E2.41399
G1 X101.364 Y109.192 E2.43113
G1 X100.562 Y109.368 E2.44760
G1 X100.468 Y109.205 E2.45138
G1 X101.029 Y108.590 E2.46808
G1 X100.928 Y108.406 E2.47230
G1 X100.683 Y107.816 E2.48509
G1 X99.852 Y107.833 E2.50176
G1 X99.792 Y107.655 E2.50553
G1 X100.466 Y107.159 E2.52231
G1 X100.347 Y106.747 E2.53091
G1 X100.277 Y106.335 E2.53928
G1 X99.456 Y106.189 E2.55599
G1 X99.432 Y106.003 E2.55977
G1 X100.187 Y105.649 E2.57648
G1 X100.150 Y105.000 E2.58952
G1 X100.161 Y104.802 E2.59350
G1 X99.388 Y104.500 E2.61014
G1 X99.401 Y104.312 E2.61391
G1 X100.201 Y104.115 E2.63043
G1 X100.344 Y103.272 E2.64757
G1 X99.651 Y102.829 E2.66405
G1 X99.700 Y102.647 E2.66782
G1 X100.532 Y102.610 E2.68452
G1 X100.591 Y102.407 E2.68874
G1 X100.835 Y101.818 E2.70154
G1 X100.235 Y101.242 E2.71820
G1 X100.318 Y101.073 E2.72197
G1 X101.146 Y101.199 E2.73875
G1 X101.353 Y100.824 E2.74735
G1 X101.595 Y100.483 E2.75572
G1 X101.118 Y99.800 E2.77244
G1 X101.232 Y99.650 E2.77621
G1 X102.016 Y99.934 E2.79293
G1 X102.449 Y99.449 E2.80596
G1 X102.598 Y99.317 E2.80994
G1 X102.264 Y98.557 E2.82658
G1 X102.406 Y98.433 E2.83035
G1 X103.111 Y98.859 E2.84687
G1 X103.808 Y98.364 E2.86401
G1 X103.631 Y97.562 E2.88049
G1 X103.795 Y97.468 E2.88426
G1 X104.410 Y98.029 E2.90097
G1 X104.594 Y97.928 E2.90519
G1 X105.184 Y97.683 E2.91798
G1 X105.167 Y96.852 E2.93464
G1 X105.345 Y96.792 E2.93842
G1 X105.841 Y97.466 E2.95519
G1 X106.253 Y97.347 E2.96380
G1 X106.665 Y97.277 E2.97216
G1 X106.811 Y96.456 E2.98888
G1 X106.997 Y96.432 E2.99265
G1 X107.351 Y97.187 E3.00937
G1 X108.000 Y97.150 E3.02240
G1 X108.198 Y97.161 E3.02639
G1 X108.500 Y96.388 E3.04302
G1 X108.688 Y96.401 E3.04680
G1 X108.885 Y97.201 E3.06332
G1 X109.728 Y97.344 E3.08046
G1 X110.171 Y96.651 E3.09693
G1 X110.353 Y96.700 E3.10071
G1 X110.390 Y97.532 E3.11741
G1 X110.593 Y97.591 E3.12163
G1 X111.182 Y97.835 E3.13442
G1 X111.758 Y97.235 E3.15109
G1 X111.927 Y97.318 E3.15486
G1 X111.801 Y98.146 E3.17164
G1 X112.176 Y98.353 E3.18024
G1 X112.517 Y98.595 E3.18861
G1 X113.200 Y98.118 E3.20532
G1 X113.350 Y98.232 E3.20910
G1 X113.066 Y99.016 E3.22581
G1 X113.551 Y99.449 E3.23884
G1 X113.683 Y99.598 E3.24283
G1 X114.443 Y99.264 E3.25947
G1 X114.567 Y99.406 E3.26324
G1 X114.141 Y100.111 E3.27976
G1 X114.636 Y100.808 E3.29690
G1 X115.438 Y100.631 E3.31337
G1 X115.532 Y100.795 E3.31715
G1 X114.971 Y101.410 E3.33385
G1 X115.072 Y101.594 E3.33807
G1 X115.317 Y102.184 E3.35087
G1 X116.148 Y102.167 E3.36753
G1 X116.208 Y102.345 E3.37130
G1 X115.534 Y102.841 E3.38808
G1 X115.653 Y103.253 E3.39668
G1 X115.723 Y103.665 E3.40505
G1 X116.544 Y103.811 E3.42176
G1 X116.568 Y103.997 E3.42554
G1 X115.813 Y104.351 E3.44226
G1 X115.850 Y105.000 E3.45529
G1 X115.839 Y105.198 E3.45927
G1 X116.612 Y105.500 E3.47591
G1 X116.599 Y105.688 E3.47968
G1 X115.799 Y105.885 E3.49620
G1 X115.656 Y106.728 E3.51334
G1 X116.349 Y107.171 E3.52982
G1 X116.300 Y107.353 E3.53359
G1 X115.468 Y107.390 E3.55030
G1 X115.409 Y107.593 E3.55452
G1 X115.165 Y108.182 E3.56731
G1 X115.765 Y108.758 E3.58397
G1 X115.682 Y108.927 E3.58775
G1 X114.854 Y108.801 E3.60452
G1 X114.647 Y109.176 E3.61313
G1 X114.405 Y109.517 E3.62149
G1 X114.882 Y110.200 E3.63821
G1 X114.768 Y110.350 E3.64198
G1 X113.984 Y110.066 E3.65870
G1 X113.551 Y110.551 E3.67173
G1 X113.402 Y110.683 E3.67572
G1 X113.736 Y111.443 E3.69235
G1 X113.594 Y111.567 E3.69613
G1 X112.940 Y111.172 E3.71144
G1 X112.615 Y110.849 F7800.000
G1 X111.455 Y111.435 F7800.000
G1 X101.565 Y101.545 E3.99182 F1080.000
G1 X101.403 Y101.842 E3.99859
G1 X111.158 Y111.597 E4.27514
G1 X110.834 Y111.731 E4.28218
G1 X101.269 Y102.166 E4.55334
G1 X101.135 Y102.490 E4.56038
